symbols/web/phonelink_setup/materialsymbolsoutlined/phonelink_setup_wght700gradN25_48px.svg

<svg xmlns="http://www.w3.org/2000/svg" height="48" width="48"><path d="M35.3 31.25 35.05 29q-.6-.1-1.1-.4-.5-.3-.85-.75l-1.95.9-1.4-2.15 1.75-1.3q-.25-.55-.25-1.375t.25-1.425l-1.75-1.3 1.4-2.2 1.95.95q.35-.45.8-.775.45-.325 1.15-.425l.25-2.2H38l.25 2.2q.7.1 1.175.425.475.325.775.775l2-.95 1.35 2.2-1.75 1.3q.25.6.25 1.425 0 .825-.25 1.375l1.75 1.3-1.4 2.15-1.9-.9q-.35.4-.875.725-.525.325-1.125.475l-.25 2.2Zm1.35-4.05q1.4 0 2.35-.95.95-.95.95-2.35 0-1.4-.95-2.35-.95-.95-2.35-.95-1.4 0-2.35.95-.95.95-.95 2.35 0 1.4.95 2.35.95.95 2.35.95Zm-23 19.7q-1.9 0-3.25-1.35T9.05 42.3V5.65q0-1.85 1.35-3.2t3.25-1.35H34.4q1.85 0 3.2 1.35t1.35 3.2v6.6H34.4V10.1H13.65v27.8H34.4v-2.2h4.55v6.6q0 1.9-1.35 3.25t-3.2 1.35Zm0-6.15v1.55H34.4v-1.55Zm0-33.55H34.4V5.65H13.65Zm0-1.55V7.2 5.65Zm0 36.65v-1.55 1.55Z"/></svg>

<svg xmlns="http://www.w3.org/2000/svg" height="48" width="48"><path d="M35.3 31.25 35.05 29Q34.45 28.9 33.95 28.6Q33.45 28.3 33.1 27.85L31.15 28.75L29.75 26.6L31.5 25.3Q31.25 24.75 31.25 23.925Q31.25 23.1 31.5 22.5L29.75 21.2L31.15 19L33.1 19.95Q33.45 19.5 33.9 19.175Q34.35 18.85 35.05 18.75L35.3 16.55H38L38.25 18.75Q38.95 18.85 39.425 19.175Q39.9 19.5 40.2 19.95L42.2 19L43.55 21.2L41.8 22.5Q42.05 23.1 42.05 23.925Q42.05 24.75 41.8 25.3L43.55 26.6L42.15 28.75L40.25 27.85Q39.9 28.25 39.375 28.575Q38.85 28.9 38.25 29.05L38 31.25ZM36.65 27.2Q38.05 27.2 39 26.25Q39.95 25.3 39.95 23.9Q39.95 22.5 39 21.55Q38.05 20.6 36.65 20.6Q35.25 20.6 34.3 21.55Q33.35 22.5 33.35 23.9Q33.35 25.3 34.3 26.25Q35.25 27.2 36.65 27.2ZM13.65 46.9Q11.75 46.9 10.4 45.55Q9.05 44.2 9.05 42.3V5.65Q9.05 3.8 10.4 2.45Q11.75 1.1 13.65 1.1H34.4Q36.25 1.1 37.6 2.45Q38.95 3.8 38.95 5.65V12.25H34.4V10.1H13.65V37.9H34.4V35.7H38.95V42.3Q38.95 44.2 37.6 45.55Q36.25 46.9 34.4 46.9ZM13.65 40.75V42.3Q13.65 42.3 13.65 42.3Q13.65 42.3 13.65 42.3H34.4Q34.4 42.3 34.4 42.3Q34.4 42.3 34.4 42.3V40.75ZM13.65 7.2H34.4V5.65Q34.4 5.65 34.4 5.65Q34.4 5.65 34.4 5.65H13.65Q13.65 5.65 13.65 5.65Q13.65 5.65 13.65 5.65ZM13.65 5.65Q13.65 5.65 13.65 5.65Q13.65 5.65 13.65 5.65V7.2V5.65Q13.65 5.65 13.65 5.65Q13.65 5.65 13.65 5.65ZM13.65 42.3Q13.65 42.3 13.65 42.3Q13.65 42.3 13.65 42.3V40.75V42.3Q13.65 42.3 13.65 42.3Q13.65 42.3 13.65 42.3Z"/></svg>
